svgs/sparkasse.svg

<svg width="192" height="192" viewBox="0 0 192 192" fill="none" xmlns="http://www.w3.org/2000/svg">
<g clip-path="url(#clip0_127_35)">
<path fill-rule="evenodd" clip-rule="evenodd" d="M60.425 73.4349C58.0195 73.4349 55.9117 73.6974 53.7926 74.6108C51.6734 75.5127 49.6917 76.8256 48.0995 78.3896C46.5187 79.9538 45.442 81.9402 44.5485 84.0638C43.6321 86.1645 43.1281 88.2765 43.1281 90.6741V128.954H118.158C121.102 128.954 123.496 131.34 123.496 134.275C123.496 137.209 121.102 139.595 118.158 139.595H45.0182C44.1306 139.595 43.3758 140.207 43.1713 141.03C43.1367 141.169 43.1179 141.315 43.1166 141.464V144.167V146.444C43.1166 148.854 43.6321 151.182 44.537 153.295C45.4419 155.407 46.5302 157.154 48.0881 158.729C49.6688 160.293 51.6506 161.606 53.7812 162.508C55.9003 163.422 58.008 163.924 60.4136 163.924H130.587C132.992 163.924 135.099 163.422 137.219 162.508C139.349 161.606 141.342 160.282 142.911 158.729C144.493 157.154 145.787 155.407 146.704 153.295C147.62 151.182 147.883 148.854 147.883 146.444V108.165H72.739C69.8639 108.165 67.5271 105.835 67.5271 102.97C67.5271 100.104 69.8639 97.7753 72.739 97.7753H147.883V90.6856C147.883 88.905 147.744 87.2755 147.293 85.6991C147.136 85.1528 146.942 84.6128 146.704 84.0752L146.715 84.0638C145.81 81.9402 144.504 79.9652 142.924 78.3896C141.355 76.8256 139.372 75.5127 137.231 74.6108C135.111 73.6974 133.003 73.4349 130.598 73.4349H60.425ZM31.0001 141.437C31 141.451 31 141.465 31 141.478V146.444C31 150.571 31.8819 154.508 33.3938 158.038C34.7673 161.243 36.6293 164.345 39.458 167.205C39.489 167.237 39.5202 167.268 39.5515 167.299C42.2665 169.986 45.5412 172.136 49.0089 173.608C52.4388 175.081 56.1668 176 60.4136 176H130.587C134.835 176 138.564 175.081 141.995 173.607C145.466 172.132 148.75 169.97 151.449 167.299L151.48 167.268C153.924 164.833 156.19 161.855 157.825 158.088C159.679 153.815 160 149.609 160 146.444V144.167V91.844V90.6856C160 87.6483 159.709 83.9231 158.111 79.9604C158.036 79.7533 157.954 79.5473 157.867 79.3427C156.402 75.9044 154.254 72.6041 151.491 69.8505C148.769 67.1372 145.476 64.9797 141.992 63.5061C137.82 61.7181 133.914 61.3586 130.598 61.3586H120.347C121.235 60.024 122.041 58.5755 122.731 57.0027C122.736 56.9896 122.742 56.9766 122.747 56.9635C122.755 56.9451 122.764 56.9265 122.772 56.908C124.285 53.3754 125.166 49.4265 125.166 45.3155C125.166 40.9983 124.182 37.2975 122.794 34.0135C122.776 33.9722 122.758 33.9311 122.74 33.89C121.298 30.5843 119.19 27.2879 116.436 24.523C113.491 21.5665 110.276 19.7128 107.142 18.3854C103.559 16.8541 99.6301 16 95.5115 16C91.4076 16 87.4613 16.8482 83.8668 18.3915C80.5611 19.795 77.5472 21.6543 74.7432 24.369C74.7237 24.3879 74.7044 24.4069 74.685 24.4258C74.6627 24.4477 74.6404 24.4698 74.6182 24.4919C71.8221 27.2786 69.7131 30.6107 68.2825 33.8901L68.2512 33.9626C66.8129 37.3197 65.8574 41.0324 65.8574 45.3155C65.8574 49.463 66.7642 53.3933 68.2295 56.8571C68.2501 56.9058 68.271 56.9543 68.2922 57.0026C68.9821 58.5755 69.7877 60.024 70.6762 61.3586H60.425C57.1039 61.3586 53.1892 61.7193 49.0095 63.5152C45.5584 64.9876 42.3017 67.1291 39.594 69.7888L39.5629 69.8195C36.3622 72.9865 34.5459 76.6212 33.4037 79.3245C31.921 82.7471 31.0114 86.4686 31.0114 90.6741V91.844H31.0001V141.437ZM102.384 29.4919C100.254 28.5786 97.9399 28.0762 95.5115 28.0762C93.083 28.0762 90.7577 28.5786 88.6385 29.4919C86.5079 30.3939 84.7896 31.4784 83.186 33.0311C81.6166 34.5952 80.3108 36.6045 79.3944 38.7052C78.4894 40.8173 77.974 42.9179 77.974 45.3155C77.974 47.713 78.5009 50.0534 79.3944 52.1655C80.3108 54.2548 81.6166 56.0357 83.186 57.5998C83.9878 58.3876 84.8126 59.0954 85.7061 59.7348C86.5795 60.3598 87.5296 60.8975 88.567 61.3586L88.6385 61.3902C90.7691 62.2921 93.1059 62.8059 95.5115 62.8059C97.917 62.8059 100.265 62.2807 102.384 61.3902L102.457 61.3586C103.483 60.9078 104.433 60.3594 105.329 59.7348C106.233 59.1068 107.058 58.3876 107.837 57.5998C109.406 56.0357 110.713 54.2548 111.628 52.1655C112.533 50.0534 113.049 47.713 113.049 45.3155C113.049 42.9179 112.522 40.8173 111.628 38.7052C110.713 36.6045 109.406 34.6066 107.837 33.0311C106.268 31.4556 104.493 30.3824 102.384 29.4919Z" fill="black"/>
</g>
<defs>
<clipPath id="clip0_127_35">
<rect width="192" height="192" fill="white"/>
</clipPath>
</defs>
</svg>

<svg width="192" height="192" fill="none" xmlns="http://www.w3.org/2000/svg"><g clip-path="url(#a)"><path fill-rule="evenodd" clip-rule="evenodd" d="M60.425 73.435c-2.405 0-4.513.262-6.632 1.176-2.12.902-4.101 2.215-5.694 3.779-1.58 1.564-2.657 3.55-3.55 5.674-.917 2.1-1.42 4.213-1.42 6.61v38.28h75.029c2.944 0 5.338 2.386 5.338 5.321 0 2.934-2.394 5.32-5.338 5.32h-73.14c-.887 0-1.642.612-1.847 1.435a1.866 1.866 0 0 0-.054.434v4.98c0 2.41.515 4.738 1.42 6.851.905 2.112 1.993 3.859 3.551 5.434 1.58 1.564 3.563 2.877 5.693 3.779 2.12.914 4.227 1.416 6.633 1.416h70.173c2.405 0 4.512-.502 6.632-1.416 2.13-.902 4.123-2.226 5.692-3.779 1.582-1.575 2.876-3.322 3.793-5.434.916-2.113 1.179-4.441 1.179-6.851v-38.279H72.739c-2.875 0-5.212-2.33-5.212-5.195 0-2.866 2.337-5.195 5.212-5.195h75.144v-7.09c0-1.78-.139-3.41-.59-4.986a12.587 12.587 0 0 0-.589-1.624l.011-.011c-.905-2.124-2.211-4.099-3.791-5.674-1.569-1.564-3.552-2.877-5.693-3.78-2.12-.913-4.228-1.175-6.633-1.175H60.425ZM31 141.437V146.444c0 4.127.882 8.064 2.394 11.594 1.373 3.205 3.235 6.307 6.064 9.167l.093.094c2.715 2.687 5.99 4.837 9.458 6.309 3.43 1.473 7.158 2.392 11.405 2.392h70.173c4.248 0 7.977-.919 11.408-2.393 3.471-1.475 6.755-3.637 9.454-6.308l.031-.031c2.444-2.435 4.71-5.413 6.345-9.18 1.854-4.273 2.175-8.479 2.175-11.644V90.686c0-3.038-.291-6.763-1.889-10.726a12.174 12.174 0 0 0-.244-.617c-1.465-3.439-3.613-6.739-6.376-9.493-2.722-2.713-6.015-4.87-9.499-6.344-4.172-1.788-8.078-2.147-11.394-2.147h-10.251a28.58 28.58 0 0 0 2.384-4.356l.016-.04.025-.055a29.507 29.507 0 0 0 2.394-11.593c0-4.317-.984-8.017-2.372-11.301a75.583 75.583 0 0 0-.054-.124c-1.442-3.306-3.55-6.602-6.304-9.367-2.945-2.956-6.16-4.81-9.294-6.138A29.522 29.522 0 0 0 95.512 16c-4.104 0-8.05.848-11.645 2.392-3.306 1.403-6.32 3.262-9.124 5.977l-.058.057-.067.066c-2.796 2.787-4.905 6.119-6.335 9.398l-.032.073c-1.438 3.357-2.394 7.07-2.394 11.352 0 4.148.907 8.078 2.373 11.542l.062.146a28.524 28.524 0 0 0 2.384 4.356H60.425c-3.321 0-7.236.36-11.415 2.156-3.452 1.473-6.708 3.614-9.416 6.274l-.031.03c-3.2 3.168-5.017 6.802-6.16 9.505-1.482 3.423-2.392 7.145-2.392 11.35v1.17h-.01v49.593Zm71.384-111.945a17.367 17.367 0 0 0-6.873-1.416 17.33 17.33 0 0 0-6.873 1.416c-2.13.902-3.848 1.986-5.452 3.54-1.57 1.563-2.875 3.573-3.792 5.673-.905 2.112-1.42 4.213-1.42 6.61 0 2.398.527 4.738 1.42 6.85.917 2.09 2.223 3.87 3.792 5.435a21.112 21.112 0 0 0 2.52 2.135 16.179 16.179 0 0 0 2.861 1.624l.072.031a17.658 17.658 0 0 0 6.873 1.416c2.405 0 4.753-.525 6.872-1.416l.073-.031c1.026-.451 1.976-1 2.872-1.624a17.877 17.877 0 0 0 2.508-2.135c1.569-1.564 2.876-3.345 3.791-5.434a17.455 17.455 0 0 0 1.421-6.85c0-2.398-.527-4.499-1.421-6.61-.915-2.102-2.222-4.1-3.791-5.675-1.569-1.575-3.344-2.649-5.453-3.54Z" fill="#000"/></g><defs><clipPath id="a"><path fill="#fff" d="M0 0h192v192H0z"/></clipPath></defs></svg>
